symbolic/64x64/apps/blobby.svg

<svg xmlns="http://www.w3.org/2000/svg" width="64" height="64" version="1">
 <circle style="opacity:0.2" cx="32" cy="33" r="28"/>
 <circle style="fill:#e4e4e4" cx="32" cy="32" r="28"/>
 <path style="opacity:0.2" d="M 28.451172 5.2304688 C 27.603244 5.3368747 26.771369 5.4880175 25.949219 5.6679688 C 24.751077 13.938727 26.151152 22.808305 30.621094 30.599609 C 28.325094 34.258457 25.569869 37.687525 22.355469 40.203125 C 15.709166 31.597287 13.349858 20.864738 14.841797 10.876953 C 13.900758 11.606666 12.993624 12.374798 12.154297 13.216797 C 11.326012 23.141458 14.099559 33.215165 20.291016 41.804688 C 16.732837 44.306379 12.786717 46.219126 8.6386719 47.40625 A 28 28 0 0 0 10.070312 49.408203 C 19.208271 46.497585 27.421342 40.487402 32.689453 31.742188 C 37.051911 31.742192 41.413146 32.657185 45.316406 34.029297 C 40.315682 45.7235 30.364465 53.899273 18.794922 56.677734 A 28 28 0 0 0 22.332031 58.240234 C 33.297199 54.594683 42.656131 46.301594 47.382812 35.173828 C 51.363525 37.051998 54.94758 39.511988 57.988281 42.359375 A 28 28 0 0 0 58.90625 39.660156 C 51.898904 33.488366 42.829142 29.676635 32.689453 29.457031 C 30.393451 25.569437 29.016985 21.452276 28.328125 17.335938 C 29.849219 17.164424 31.358882 17.079745 32.853516 17.076172 C 42.903488 17.052152 52.234238 20.751095 59.365234 27.072266 C 59.065708 25.673148 58.645432 24.323583 58.146484 23.011719 C 49.786398 16.644517 39.158932 13.506344 28.097656 15.048828 C 27.883516 11.848773 27.892922 8.4572915 28.451172 5.2304688 z"/>
 <path style="fill:#4f4f4f" d="m 28.450782,4.2296874 c -0.847928,0.106406 -1.679804,0.2575488 -2.501954,0.4375 -1.198142,8.2707586 0.203104,17.1407266 4.673046,24.9320306 -2.296,3.658848 -5.051614,7.087526 -8.266014,9.603126 -6.646303,-8.605838 -9.006002,-19.338387 -7.514063,-29.3261722 -0.941039,0.7297132 -1.848564,1.4986262 -2.687891,2.3406252 -0.828285,9.924661 1.946043,19.998367 8.1375,28.587889 -3.713704,2.611038 -7.847706,4.589588 -12.1953124,5.76133 0.4270166,0.701294 0.881955,1.38119 1.3671878,2.039844 9.3819016,-2.833992 17.8407326,-8.924338 23.2257826,-17.863674 4.362458,4e-6 8.724082,0.913826 12.627342,2.285938 -5.180476,12.114554 -15.668456,20.47161 -27.770313,22.944142 1.07005,0.644664 2.175158,1.237028 3.333205,1.736328 11.589774,-3.373802 21.569532,-11.917122 26.504296,-23.534766 4.105596,1.937092 7.793214,4.48935 10.89375,7.451172 0.329824,-0.904878 0.61368,-1.829028 0.85039,-2.77539 C 52.0911,32.564288 42.93404,28.678134 32.689064,28.45625 c -2.296002,-3.887594 -3.67247,-8.005146 -4.36133,-12.121484 1.521094,-0.171514 3.030756,-0.256193 4.52539,-0.259766 10.049972,-0.02402 19.381504,3.675703 26.5125,9.996874 -0.299526,-1.399118 -0.720582,-2.748682 -1.21953,-4.060546 -8.360086,-6.367202 -18.98677,-9.504984 -30.048046,-7.9625 -0.21414,-3.200055 -0.205516,-6.5923178 0.352734,-9.8191406 z"/>
 <path style="opacity:0.2;fill:#ffffff" d="M 32 4 A 28 28 0 0 0 4 32 A 28 28 0 0 0 4.0175781 32.492188 A 28 28 0 0 1 32 5 A 28 28 0 0 1 59.974609 32.492188 A 28 28 0 0 0 60 32 A 28 28 0 0 0 32 4 z"/>
</svg>

<svg xmlns="http://www.w3.org/2000/svg" width="64" height="64" version="1"><circle style="opacity:.2" cx="32" cy="33" r="28"/><circle style="fill:#e4e4e4" cx="32" cy="32" r="28"/><path style="opacity:.2" d="M28.451 5.23c-.848.107-1.68.258-2.502.438-1.198 8.27.202 17.14 4.672 24.932-2.296 3.658-5.051 7.088-8.266 9.603-6.646-8.606-9.005-19.338-7.513-29.326a27.97 27.97 0 0 0-2.688 2.34c-.828 9.924 1.946 19.998 8.137 28.588-3.558 2.501-7.504 4.414-11.652 5.601a28 28 0 0 0 1.431 2.002c9.138-2.91 17.351-8.92 22.62-17.666 4.362 0 8.723.915 12.626 2.287-5 11.694-14.952 19.87-26.521 22.649a28 28 0 0 0 3.537 1.562c10.965-3.645 20.324-11.938 25.05-23.066a41.382 41.382 0 0 1 10.606 7.185 28 28 0 0 0 .918-2.699C51.9 33.488 42.83 29.677 32.69 29.457c-2.296-3.888-3.672-8.005-4.36-12.121a41.251 41.251 0 0 1 4.525-.26c10.05-.024 19.38 3.675 26.511 9.996-.3-1.399-.72-2.748-1.219-4.06-8.36-6.367-18.987-9.506-30.048-7.963-.214-3.2-.205-6.592.353-9.819z"/><path style="fill:#4f4f4f" d="M28.45 4.23c-.847.106-1.679.257-2.501.437-1.198 8.27.203 17.14 4.673 24.932-2.296 3.66-5.052 7.088-8.266 9.603-6.646-8.605-9.006-19.338-7.514-29.326a27.983 27.983 0 0 0-2.688 2.34c-.828 9.925 1.946 20 8.137 28.589-3.713 2.61-7.847 4.59-12.195 5.761.427.701.882 1.381 1.367 2.04 9.382-2.834 17.841-8.924 23.226-17.864 4.363 0 8.724.914 12.627 2.286-5.18 12.115-15.668 20.472-27.77 22.944a27.797 27.797 0 0 0 3.333 1.737c11.59-3.374 21.57-11.918 26.505-23.535a41.343 41.343 0 0 1 10.893 7.451c.33-.905.614-1.829.85-2.775-7.036-6.286-16.193-10.172-26.438-10.394-2.296-3.887-3.672-8.005-4.361-12.121a41.251 41.251 0 0 1 4.525-.26c10.05-.024 19.382 3.676 26.513 9.997-.3-1.4-.721-2.749-1.22-4.06-8.36-6.368-18.987-9.506-30.048-7.963-.214-3.2-.205-6.592.353-9.82z"/><path style="opacity:.2;fill:#fff" d="M32 4A28 28 0 0 0 4 32a28 28 0 0 0 .018.492A28 28 0 0 1 32 5a28 28 0 0 1 27.975 27.492A28 28 0 0 0 60 32 28 28 0 0 0 32 4z"/></svg>
